X: 1312
T: An Léimras
R: reel
M: 4/4
K: Gmajor
|:G2GF GAGF|E2AG AcBA|FGGE D2D2|EAAG AcBA|
FGGF GAGF|E2AG AcBA|FGGE DGGD|BcBA G2GF:|
|:G2BG dGBe|dBAG FGGF|G2BG dGBe|dBAG FDFA|
G2BG dGBe|dBAG FAAA|Bddd Beee|dBA/2B/2c BGGF:|

